; generated by Slic3r 1.2.9 on 2015-09-28 at 23:41:00

; external perimeters extrusion width = 0.35mm
; perimeters extrusion width = 0.52mm
; infill extrusion width = 0.52mm
; solid infill extrusion width = 0.52mm
; top infill extrusion width = 0.52mm
; support material extrusion width = 0.35mm

M107
G28 ; home all axes
M203 X192 Y208 Z3 ; Speed limits to minimize skipped steps when moving really fast courtesy of forum.lulzbot.com user 1013
G21 ; set units to millimeters
G90 ; use absolute coordinates
M82 ; use absolute distances for extrusion
G92 E0
G1 Z0.350 F7200.000
G1 E-1.70000 F2400.00000
G92 E0
G1 X78.081 Y77.564 F7200.000
G1 E1.70000 F2400.00000
G1 X80.029 Y76.353 E1.77647 F1800.000
G1 X82.500 Y75.875 E1.86038
G1 X117.500 Y75.875 E3.02733
G1 X119.759 Y76.272 E3.10380
G1 X121.747 Y77.415 E3.18027 F1800.000
G1 X123.226 Y79.168 E3.25673
G1 X124.019 Y81.320 E3.33320
G1 X124.125 Y82.500 E3.37270
G1 X124.125 Y117.500 E4.53965
G1 X123.728 Y119.759 E4.61612
G1 X122.585 Y121.747 E4.69258
G1 X120.832 Y123.226 E4.76905
G1 X118.729 Y124.010 E4.84386
G1 X109.793 Y125.697 E5.14708
G1 X108.564 Y125.812 E5.18825
G1 X82.002 Y125.812 E6.07385
G1 X78.918 Y125.051 E6.17978
G1 X77.811 Y124.469 E6.22146
G1 X75.997 Y123.065 E6.29793
G1 X74.770 Y121.128 E6.37439
G1 X74.271 Y118.606 E6.46012
G1 X74.271 Y93.503 E7.29709
G1 X74.340 Y92.547 E7.32904
G1 X75.944 Y81.544 E7.69976
G1 X76.663 Y79.366 E7.77623
G1 X78.049 Y77.605 E7.85095
G1 E6.15095 F2400.00000
G92 E0
G1 X117.150 Y117.150 F7200.000
G1 E1.70000 F2400.00000
G1 X108.350 Y117.150 E1.99341 F1800.000
G1 X108.350 Y99.179 E2.59257
G1 X108.553 Y99.164 E2.59935
G1 X110.476 Y98.320 E2.66937
G1 X112.015 Y96.903 E2.73911
G1 X113.011 Y95.063 E2.80886
G1 X113.355 Y93.000 E2.87861
G1 X113.011 Y90.937 E2.94836
G1 X112.015 Y89.097 E3.01811
G1 X110.476 Y87.680 E3.08786
G1 X108.560 Y86.840 E3.15761
G1 X106.475 Y86.667 E3.22736
G1 X104.447 Y87.180 E3.29710
G1 X102.696 Y88.325 E3.36685
G1 X101.411 Y89.975 E3.43660
G1 X100.836 Y91.650 E3.49563
G1 X82.850 Y91.650 E4.09532
G1 X82.850 Y82.850 E4.38872
G1 X117.150 Y82.850 E5.53234
G1 X117.150 Y117.097 E6.67420
G1 X109.034 Y116.771 F7200.000
G1 X108.729 Y116.466 E6.68870 F1800.000
G1 X108.729 Y115.576 E6.71864
G1 X109.924 Y116.771 E6.77548
G1 X110.815 Y116.771 E6.80541
G1 X108.729 Y114.685 E6.90459
G1 X108.729 Y113.794 E6.93452
G1 X111.706 Y116.771 E7.07603
G1 X112.597 Y116.771 E7.10597
G1 X108.729 Y112.903 E7.28982
G1 X108.729 Y112.012 E7.31975
G1 X113.488 Y116.771 E7.54594
G1 X114.378 Y116.771 E7.57587
G1 X108.729 Y111.122 E7.84439
G1 X108.729 Y110.231 E7.87433
G1 X115.269 Y116.771 E8.18518
G1 X116.160 Y116.771 E8.21512
G1 X108.729 Y109.340 E8.56831
G1 X108.729 Y108.449 E8.59825
G1 X116.771 Y116.492 E8.98051
G1 X116.771 Y115.601 E9.01045
G1 X108.729 Y107.559 E9.39270
G1 X108.729 Y106.668 E9.42264
G1 X116.771 Y114.711 E9.80490
G1 X116.771 Y113.820 E9.83484
G1 X108.729 Y105.777 E10.21710
G1 X108.729 Y104.886 E10.24703
G1 X116.771 Y112.929 E10.62929
G1 X116.771 Y112.038 E10.65923
G1 X108.729 Y103.996 E11.04149
G1 X108.729 Y103.105 E11.07143
G1 X116.771 Y111.148 E11.45369
G1 X116.771 Y110.257 E11.48362
G1 X108.729 Y102.214 E11.86588
G1 X108.729 Y101.323 E11.89582
G1 X116.771 Y109.366 E12.27808
G1 X116.771 Y108.475 E12.30801
G1 X108.729 Y100.432 E12.69027
G1 X108.729 Y99.542 F7200.000
G1 X116.771 Y107.585 E13.07253 F1800.000
G1 X116.771 Y106.694 E13.10247
G1 X109.287 Y99.209 E13.45820
G1 X109.906 Y98.937 E13.48092
G1 X116.771 Y105.803 E13.80723
G1 X116.771 Y104.912 E13.83716
G1 X110.525 Y98.666 E14.13404
G1 X111.014 Y98.264 E14.15531
G1 X116.771 Y104.021 E14.42893
G1 X116.771 Y103.131 E14.45887
G1 X111.478 Y97.837 E14.71044
G1 X111.942 Y97.410 E14.73163
G1 X116.771 Y102.240 E14.96116
G1 X116.771 Y101.349 E14.99110
G1 X112.368 Y96.946 E15.20036
G1 X112.681 Y96.368 E15.22245
G1 X116.771 Y100.458 E15.41685
G1 X116.771 Y99.568 E15.44678
G1 X112.994 Y95.790 E15.62631
G1 X113.307 Y95.212 E15.64840
G1 X116.771 Y98.677 E15.81306
G1 X116.771 Y97.786 E15.84300
G1 X113.471 Y94.485 E15.99988
G1 X113.598 Y93.722 E16.02589
G1 X116.771 Y96.895 E16.17672
G1 X116.771 Y96.004 E16.20666
G1 X113.725 Y92.958 E16.35144
G1 X113.583 Y91.926 E16.38647
G1 X116.771 Y95.114 E16.53800
G1 X116.771 Y94.223 E16.56793
G1 X113.405 Y90.856 E16.72794
G1 X112.534 Y89.095 F7200.000
G1 X116.771 Y93.332 E16.92932 F1800.000
G1 X110.760 Y87.321 F7200.000
G1 X106.668 Y83.229 E17.12382 F1800.000
G1 X107.559 Y83.229 E17.15376
G1 X116.771 Y92.441 E17.59163
G1 X116.771 Y91.551 E17.62156
G1 X108.449 Y83.229 E18.01709
G1 X109.340 Y83.229 E18.04703
G1 X116.771 Y90.660 E18.40022
G1 X116.771 Y89.769 E18.43016
G1 X110.231 Y83.229 E18.74102
G1 X111.122 Y83.229 E18.77095
G1 X116.771 Y88.878 E19.03947
G1 X116.771 Y87.988 E19.06941
G1 X112.012 Y83.229 E19.29559
G1 X112.903 Y83.229 E19.32553
G1 X116.771 Y87.097 E19.50938
G1 X116.771 Y86.206 E19.53932
G1 X113.794 Y83.229 E19.68083
G1 X114.685 Y83.229 E19.71076
G1 X116.771 Y85.315 E19.80994
G1 X116.771 Y84.424 E19.83987
G1 X115.576 Y83.229 E19.89671
G1 X116.466 Y83.229 E19.92665
G1 X116.771 Y83.534 E19.94115
G1 X109.173 Y86.625 F7200.000
G1 X105.777 Y83.229 E20.10257 F1800.000
G1 X104.886 Y83.229 E20.13251
G1 X108.065 Y86.407 E20.28359
G1 X107.094 Y86.327 E20.31634
G1 X103.996 Y83.229 E20.46359
G1 X103.105 Y83.229 E20.49353
G1 X106.241 Y86.365 E20.64260
G1 X105.530 Y86.545 E20.66724
G1 X102.214 Y83.229 E20.82486
G1 X101.323 Y83.229 E20.85480
G1 X104.820 Y86.725 E21.02097
G1 X104.172 Y86.969 E21.04421
G1 X100.432 Y83.229 E21.22197
G1 X99.542 Y83.229 E21.25191
G1 X103.634 Y87.321 E21.44639
G1 X103.095 Y87.673 E21.46802
G1 X98.651 Y83.229 E21.67924
G1 X97.760 Y83.229 E21.70917
G1 X102.556 Y88.025 E21.93712
G1 X102.145 Y88.504 E21.95835
G1 X96.869 Y83.229 E22.20907
G1 X95.979 Y83.229 E22.23900
G1 X101.755 Y89.005 E22.51353
G1 X101.365 Y89.506 E22.53486
G1 X95.088 Y83.229 E22.83320
G1 X94.197 Y83.229 E22.86313
G1 X101.022 Y90.053 E23.18751
G1 X100.794 Y90.717 E23.21107
G1 X93.306 Y83.229 E23.56696
G1 X92.415 Y83.229 E23.59690
G1 X100.458 Y91.271 E23.97916
G1 X99.568 Y91.271 E24.00909
G1 X91.525 Y83.229 E24.39135
G1 X90.634 Y83.229 E24.42129
G1 X98.677 Y91.271 E24.80355
G1 X97.786 Y91.271 E24.83348
G1 X89.743 Y83.229 E25.21574
G1 X88.852 Y83.229 E25.24568
G1 X96.895 Y91.271 E25.62794
G1 X96.004 Y91.271 E25.65788
G1 X87.962 Y83.229 E26.04014
G1 X87.071 Y83.229 E26.07007
G1 X95.114 Y91.271 E26.45233
G1 X94.223 Y91.271 E26.48227
G1 X86.180 Y83.229 E26.86453
G1 X85.289 Y83.229 E26.89447
G1 X93.332 Y91.271 E27.27673
G1 X92.441 Y91.271 E27.30666
G1 X84.399 Y83.229 E27.68892
G1 X83.508 Y83.229 E27.71886
G1 X91.551 Y91.271 E28.10112
G1 X90.660 Y91.271 E28.13105
G1 X83.229 Y83.840 E28.48425
G1 X83.229 Y84.731 E28.51418
G1 X89.769 Y91.271 E28.82504
G1 X88.878 Y91.271 E28.85498
G1 X83.229 Y85.622 E29.12349
G1 X83.229 Y86.512 E29.15343
G1 X87.988 Y91.271 E29.37961
G1 X87.097 Y91.271 E29.40955
G1 X83.229 Y87.403 E29.59340
G1 X83.229 Y88.294 E29.62333
G1 X86.206 Y91.271 E29.76484
G1 X85.315 Y91.271 E29.79478
G1 X83.229 Y89.185 E29.89395
G1 X83.229 Y90.076 E29.92389
G1 X84.424 Y91.271 E29.98073
G1 X83.534 Y91.271 E30.01066
G1 X83.229 Y90.966 E30.02516
G1 Z0.350 F7200.000
G1 X82.079 Y91.142 F7200.000
G1 X80.896 Y93.503 E30.11319 F1800.000
G1 X80.896 Y96.292 E30.20619
G1 X82.878 Y92.337 E30.35367
G1 X84.276 Y92.337 E30.40028
G1 X81.883 Y97.113 E30.57837
G1 X83.281 Y97.113 E30.62498
G1 X85.674 Y92.337 E30.80307
G1 X85.910 Y94.655 E30.88073
G1 X84.679 Y97.113 E30.97240
G1 E29.27240 F2400.00000
G92 E0
G1 X80.896 Y99.081 F7200.000
G1 E1.70000 F2400.00000
G1 X81.720 Y97.437 E1.76130 F1800.000
G1 X83.118 Y97.437 E1.80791
G1 X80.896 Y101.870 E1.97323
G1 X80.896 Y104.659 E2.06623
G1 X84.516 Y97.437 E2.33558
G1 X85.901 Y97.463 E2.38177
G1 X81.064 Y107.113 E2.74166
G1 X82.462 Y107.113 E2.78827
G1 X85.910 Y100.233 E3.04484
G1 X85.910 Y103.022 E3.13784
G1 X83.860 Y107.113 E3.29038
G1 X85.910 Y105.812 E3.37133
G1 X85.258 Y107.113 E3.41985
G1 E1.71985 F2400.00000
G92 E0
G1 X82.300 Y107.437 F7200.000
G1 E1.70000 F2400.00000
G1 X80.896 Y110.238 E1.80445 F1800.000
G1 X80.896 Y113.027 E1.89744
G1 X83.698 Y107.437 E2.10591
G1 X85.096 Y107.437 E2.15252
G1 X80.896 Y115.816 E2.46501
G1 X81.644 Y117.113 E2.51492
G1 X85.910 Y108.601 E2.83236
G1 X85.910 Y111.390 E2.92536
G1 X83.042 Y117.113 E3.13878
G1 X84.440 Y117.113 E3.18539
G1 X85.997 Y114.006 E3.30125
G1 X86.829 Y115.136 E3.34802
G1 X85.838 Y117.113 E3.42175
G1 X85.763 Y117.262 F7200.000
G1 X84.798 Y119.188 E3.49355 F1800.000
G1 X83.400 Y119.188 E3.54016
G1 X84.365 Y117.262 E3.61196
G1 X82.967 Y117.262 E3.65857
G1 X82.002 Y119.188 E3.73037
G1 X80.896 Y118.606 E3.77205
G1 X81.569 Y117.262 E3.82214
G1 E2.12214 F2400.00000
G92 E0
G1 X87.146 Y114.503 F7200.000
G1 E1.70000 F2400.00000
G1 X87.395 Y114.006 E1.71854 F1800.000
G1 X88.793 Y114.006 E1.76515
G1 X86.196 Y119.188 E1.95840
G1 X87.594 Y119.188 E2.00501
G1 X90.191 Y114.006 E2.19826
G1 X91.589 Y114.006 E2.24487
G1 X88.992 Y119.188 E2.43812
G1 X90.390 Y119.188 E2.48473
G1 X92.987 Y114.006 E2.67797
G1 X94.385 Y114.006 E2.72458
G1 X91.788 Y119.188 E2.91783
G1 X93.186 Y119.188 E2.96444
G1 X95.783 Y114.006 E3.15769
G1 X97.181 Y114.006 E3.20430
G1 X94.584 Y119.188 E3.39755
G1 X95.982 Y119.188 E3.44416
G1 X98.579 Y114.006 E3.63740
G1 X99.977 Y114.006 E3.68401
G1 X97.380 Y119.188 E3.87726
G1 X98.778 Y119.188 E3.92387
G1 X101.375 Y114.006 E4.11712
G1 X102.773 Y114.006 E4.16373
G1 X100.176 Y119.188 E4.35698
G1 X101.574 Y119.188 E4.40359
G1 X104.171 Y114.006 E4.59683
G1 X105.569 Y114.006 E4.64344
G1 X102.972 Y119.188 E4.83669
G1 X104.370 Y119.188 E4.88330
G1 X106.967 Y114.006 E5.07655
G1 X107.579 Y115.574 E5.13266
G1 X105.768 Y119.188 E5.26744
G1 X107.166 Y119.188 E5.31405
G1 X107.842 Y117.837 E5.36441
G1 X108.904 Y118.509 E5.40628
G1 X108.564 Y119.188 E5.43161
G1 E3.73161 F2400.00000
G92 E0
G1 X107.146 Y102.492 F7200.000
G1 E1.70000 F2400.00000
G1 X107.579 Y101.628 E1.73222 F1800.000
G1 X107.146 Y99.702 E1.79802
G1 X108.433 Y97.134 E1.89381
G1 E0.19381 F2400.00000
G92 E0
G1 X104.250 Y97.113 F7200.000
G1 E1.70000 F2400.00000
G1 X104.582 Y96.451 E1.72467 F1800.000
G1 X103.632 Y95.557 E1.76816
G1 X102.852 Y97.113 E1.82616
G1 X101.454 Y97.113 E1.87277
G1 X102.908 Y94.213 E1.98093
G1 X102.686 Y91.866 E2.05952
G1 X100.056 Y97.113 E2.25519
G1 X98.658 Y97.113 E2.30180
G1 X101.052 Y92.337 E2.47989
G1 X99.654 Y92.337 E2.52650
G1 X97.955 Y95.726 E2.65289
G1 X97.425 Y93.994 E2.71330
G1 X98.256 Y92.337 E2.77507
G1 E1.07507 F2400.00000
G92 E0
G1 X99.893 Y97.437 F7200.000
G1 E1.70000 F2400.00000
G1 X99.357 Y98.507 E1.73990 F1800.000
G1 X100.122 Y99.771 E1.78915
G1 X101.291 Y97.437 E1.87619
G1 X102.689 Y97.437 E1.92280
G1 X101.058 Y100.692 E2.04419
G1 X102.228 Y101.147 F7200.000
G1 X104.087 Y97.437 E2.18255 F1800.000
G1 X105.485 Y97.437 E2.22916
G1 X103.281 Y101.835 E2.39319
G1 X104.545 Y102.103 E2.43625
G1 X106.829 Y97.546 E2.60624
G1 X106.829 Y100.335 E2.69924
G1 X105.722 Y102.543 E2.78158
G1 Z0.450 F7200.000
G1 X106.025 Y102.337 F7200.000
G1 X106.025 Y98.325 E2.80168 F3600.000
G1 X100.084 Y98.325 E2.83143
G1 X99.910 Y98.910 E2.83449
G1 X100.017 Y99.047 E2.83536
G1 X99.829 Y99.334 E2.83707
G1 X100.666 Y99.881 E2.84208
G1 X101.280 Y100.669 E2.84709
G1 X101.551 Y100.458 E2.84880
G1 X102.359 Y100.986 E2.85364
G1 X102.274 Y101.319 E2.85536
G1 X103.243 Y101.564 E2.86036
G1 X104.080 Y102.111 E2.86537
G1 X104.268 Y101.824 E2.86709
G1 X105.203 Y102.061 E2.87192
G1 X105.232 Y102.403 E2.87364
G1 X106.025 Y102.337 E2.87763
G1 X105.696 Y102.035 F7200.000
G1 X105.696 Y98.654 E2.89456 F3600.000
G1 X100.403 Y98.654 E2.92107
G1 X100.286 Y98.857 E2.92225
G1 X100.420 Y99.030 E2.92335
G1 X100.284 Y99.239 E2.92459
G1 X100.892 Y99.636 E2.92823
G1 X101.337 Y100.208 E2.93186
G1 X101.534 Y100.055 E2.93311
G1 X102.735 Y100.840 E2.94029
G1 X102.674 Y101.081 E2.94154
G1 X103.377 Y101.259 E2.94518
G1 X103.985 Y101.656 E2.94881
G1 X104.121 Y101.448 E2.95006
G1 X105.511 Y101.800 E2.95724
G1 X105.532 Y102.048 E2.95849
G1 X105.696 Y102.035 E2.95932
G1 E1.25932 F2400.00000
G92 E0
G1 X108.471 Y97.885 F7200.000
G1 E1.70000 F2400.00000
G1 X108.471 Y97.641 E1.70122 F3600.000
G1 X107.579 Y97.715 E1.70571
G1 X107.579 Y98.034 E1.70731
G1 X108.260 Y97.978 E1.71073
G1 X108.471 Y97.885 E1.71189
G1 X108.800 Y98.100 F7200.000
G1 X108.800 Y97.284 E1.71597 F3600.000
G1 X107.250 Y97.413 E1.72376
G1 X107.250 Y102.354 E1.74851
G1 X107.281 Y102.233 E1.74914
G1 X107.475 Y102.217 E1.75012
G1 X107.475 Y98.372 E1.76937
G1 X108.342 Y98.300 E1.77373
G1 X108.800 Y98.100 E1.77623
G1 E0.07623 F2400.00000
G92 E0
G1 X102.768 Y95.290 F7200.000
G1 E1.70000 F2400.00000
G1 X102.610 Y94.831 E1.70243 F3600.000
G1 X101.995 Y95.896 E1.70859
G1 X103.239 Y95.896 E1.71483
G1 X102.768 Y95.290 E1.71867
G1 X102.582 Y93.737 F7200.000
G1 X102.582 Y91.200 E1.73138 F3600.000
G1 X101.916 Y91.200 E1.73472
G1 X101.461 Y92.525 E1.74173
G1 X98.125 Y92.525 E1.75844
G1 X98.125 Y95.558 E1.77363
G1 X98.354 Y96.225 E1.77716
G1 X103.911 Y96.225 E1.80500
G1 X103.061 Y95.132 E1.81193
G1 X102.582 Y93.737 E1.81932
G1 X102.253 Y92.421 F7200.000
G1 X102.253 Y91.529 E1.82379 F3600.000
G1 X102.150 Y91.529 E1.82431
G1 X101.997 Y91.977 E1.82668
G1 X102.253 Y92.421 E1.82925
G1 E0.12925 F2400.00000
G92 E0
G1 X98.931 Y97.906 F7200.000
G1 E1.70000 F2400.00000
G1 X99.067 Y97.450 E1.70238 F3600.000
G1 X98.774 Y97.450 E1.70385
G1 X98.931 Y97.906 E1.70626
G1 E0.00626 F2400.00000
G92 E0
G1 X85.478 Y95.896 F7200.000
G1 E1.70000 F2400.00000
G1 X85.478 Y94.089 E1.70905 F3600.000
G1 X84.654 Y94.089 E1.71318
G1 X83.611 Y95.896 E1.72363
G1 X85.478 Y95.896 E1.73298
G1 X85.478 Y92.854 F7200.000
G1 X84.119 Y92.854 E1.73979 F3600.000
G1 X84.654 Y93.782 E1.74516
G1 X85.478 Y93.782 E1.74928
G1 X85.478 Y92.854 E1.75393
G1 X81.975 Y92.525 F7200.000
G1 X81.975 Y91.200 E1.76057 F3600.000
G1 X81.000 Y91.200 E1.76545
G1 X81.000 Y96.225 E1.79062
G1 X85.806 Y96.225 E1.81469
G1 X85.806 Y92.525 E1.83322
G1 X81.975 Y92.525 E1.85241
G1 E0.15241 F2400.00000
G92 E0
G1 X85.478 Y104.396 F7200.000
G1 E1.70000 F2400.00000
G1 X85.478 Y98.654 E1.72876 F3600.000
G1 X82.019 Y98.654 E1.74608
G1 X81.768 Y99.089 E1.74860
G1 X81.329 Y99.089 E1.75080
G1 X81.329 Y99.396 E1.75234
G1 X81.768 Y99.396 E1.75454
G1 X84.654 Y104.396 E1.78345
G1 X85.478 Y104.396 E1.78758
G1 X85.478 Y105.896 F7200.000
G1 X85.478 Y104.703 E1.79356 F3600.000
G1 X84.654 Y104.703 E1.79768
G1 X83.965 Y105.896 E1.80458
G1 X85.478 Y105.896 E1.81216
G1 X85.806 Y106.225 F7200.000
G1 X85.806 Y98.325 E1.85173 F3600.000
G1 X81.000 Y98.325 E1.87580
G1 X81.000 Y106.225 E1.91536
G1 X85.806 Y106.225 E1.93944
G1 E0.23944 F2400.00000
G92 E0
G1 X85.806 Y114.194 F7200.000
G1 E1.70000 F2400.00000
G1 X85.806 Y108.325 E1.72939 F3600.000
G1 X81.000 Y108.325 E1.75347
G1 X81.000 Y116.225 E1.79303
G1 X86.025 Y116.225 E1.81820
G1 X86.025 Y114.194 E1.82837
G1 X85.806 Y114.194 E1.82947
G1 X85.478 Y114.522 F7200.000
G1 X85.478 Y108.654 E1.85886 F3600.000
G1 X82.373 Y108.654 E1.87441
G1 X81.768 Y109.703 E1.88048
G1 X81.329 Y109.703 E1.88268
G1 X81.329 Y110.010 E1.88421
G1 X81.768 Y110.010 E1.88641
G1 X84.654 Y115.010 E1.91533
G1 X85.696 Y115.010 E1.92055
G1 X85.696 Y114.522 E1.92299
G1 X85.478 Y114.522 E1.92409
G1 X85.696 Y115.896 F7200.000
G1 X85.696 Y115.317 E1.92699 F3600.000
G1 X84.654 Y115.317 E1.93221
G1 X84.320 Y115.896 E1.93556
G1 X85.696 Y115.896 E1.94245
G1 E0.24245 F2400.00000
G92 E0
G1 X90.960 Y115.010 F7200.000
G1 E1.70000 F2400.00000
G1 X91.241 Y114.522 E1.70282 F3600.000
G1 X87.579 Y114.522 E1.72117
G1 X87.579 Y115.010 E1.72361
G1 X90.960 Y115.010 E1.74054
G1 X92.896 Y118.671 F7200.000
G1 X90.960 Y115.317 E1.75994 F3600.000
G1 X87.579 Y115.317 E1.77688
G1 X87.579 Y117.779 E1.78921
G1 X83.233 Y117.779 E1.81097
G1 X82.718 Y118.671 E1.81613
G1 X92.896 Y118.671 E1.86711
G1 X107.146 Y118.354 F7200.000
G1 X107.146 Y115.317 E1.88232 F3600.000
G1 X103.039 Y115.317 E1.90290
G1 X101.102 Y118.671 E1.92230
G1 X108.471 Y118.671 E1.95920
G1 X108.471 Y118.354 E1.96080
G1 X107.146 Y118.354 E1.96743
G1 X107.475 Y118.025 F7200.000
G1 X107.475 Y114.194 E1.98662 F3600.000
G1 X87.250 Y114.194 E2.08792
