; generated by Slic3r 1.2.9 on 2015-09-28 at 22:44:50

; external perimeters extrusion width = 0.35mm
; perimeters extrusion width = 0.52mm
; infill extrusion width = 0.52mm
; solid infill extrusion width = 0.52mm
; top infill extrusion width = 0.52mm
; support material extrusion width = 0.35mm

M107
G28 ; home all axes
M203 X192 Y208 Z3 ; Speed limits to minimize skipped steps when moving really fast courtesy of forum.lulzbot.com user 1013
G21 ; set units to millimeters
G90 ; use absolute coordinates
M82 ; use absolute distances for extrusion
G92 E0
G1 Z0.350 F7200.000
G1 E-1.70000 F2400.00000
G92 E0
G1 X78.081 Y77.564 F7200.000
G1 E1.70000 F2400.00000
G1 X80.029 Y76.353 E1.77647 F1800.000
G1 X82.500 Y75.875 E1.86038
G1 X117.500 Y75.875 E3.02733
G1 X119.759 Y76.272 E3.10380
G1 X121.747 Y77.415 E3.18027 F1800.000
G1 X123.226 Y79.168 E3.25673
G1 X124.019 Y81.320 E3.33320
G1 X124.125 Y82.500 E3.37270
G1 X124.125 Y117.500 E4.53965
G1 X123.728 Y119.759 E4.61612
G1 X122.585 Y121.747 E4.69258
G1 X120.832 Y123.226 E4.76905
G1 X118.729 Y124.010 E4.84386
G1 X109.793 Y125.697 E5.14708
G1 X108.564 Y125.812 E5.18825
G1 X82.002 Y125.812 E6.07385
G1 X78.918 Y125.051 E6.17978
G1 X77.811 Y124.469 E6.22146
G1 X75.997 Y123.065 E6.29793
G1 X74.770 Y121.128 E6.37439
G1 X74.271 Y118.606 E6.46012
G1 X74.271 Y93.503 E7.29709
G1 X74.340 Y92.547 E7.32904
G1 X75.944 Y81.544 E7.69976
G1 X76.663 Y79.366 E7.77623
G1 X78.049 Y77.605 E7.85095
G1 E6.15095 F2400.00000
G92 E0
G1 X117.150 Y117.150 F7200.000
G1 E1.70000 F2400.00000
G1 X108.350 Y117.150 E1.99341 F1800.000
G1 X108.350 Y99.179 E2.59257
G1 X108.553 Y99.164 E2.59935
G1 X110.476 Y98.320 E2.66937
G1 X112.015 Y96.903 E2.73911
G1 X113.011 Y95.063 E2.80886
G1 X113.355 Y93.000 E2.87861
G1 X113.011 Y90.937 E2.94836
G1 X112.015 Y89.097 E3.01811
G1 X110.476 Y87.680 E3.08786
G1 X108.560 Y86.840 E3.15761
G1 X106.475 Y86.667 E3.22736
G1 X104.447 Y87.180 E3.29710
G1 X102.696 Y88.325 E3.36685
G1 X101.411 Y89.975 E3.43660
G1 X100.836 Y91.650 E3.49563
G1 X82.850 Y91.650 E4.09532
G1 X82.850 Y82.850 E4.38872
G1 X117.150 Y82.850 E5.53234
G1 X117.150 Y117.097 E6.67420
G1 X109.034 Y116.771 F7200.000
G1 X108.729 Y116.466 E6.68870 F1800.000
G1 X108.729 Y115.576 E6.71864
G1 X109.924 Y116.771 E6.77548
G1 X110.815 Y116.771 E6.80541
G1 X108.729 Y114.685 E6.90459
G1 X108.729 Y113.794 E6.93452
G1 X111.706 Y116.771 E7.07603
G1 X112.597 Y116.771 E7.10597
G1 X108.729 Y112.903 E7.28982
G1 X108.729 Y112.012 E7.31975
G1 X113.488 Y116.771 E7.54594
G1 X114.378 Y116.771 E7.57587
G1 X108.729 Y111.122 E7.84439
G1 X108.729 Y110.231 E7.87433
G1 X115.269 Y116.771 E8.18518
G1 X116.160 Y116.771 E8.21512
G1 X108.729 Y109.340 E8.56831
G1 X108.729 Y108.449 E8.59825
G1 X116.771 Y116.492 E8.98051
G1 X116.771 Y115.601 E9.01045
G1 X108.729 Y107.559 E9.39271
G1 X108.729 Y106.668 E9.42264
G1 X116.771 Y114.711 E9.80490
G1 X116.771 Y113.820 E9.83484
G1 X108.729 Y105.777 E10.21710
G1 X108.729 Y104.886 E10.24703
G1 X116.771 Y112.929 E10.62929
G1 X116.771 Y112.038 E10.65923
G1 X108.729 Y103.996 E11.04149
G1 X108.729 Y103.105 E11.07143
G1 X116.771 Y111.148 E11.45369
G1 X116.771 Y110.257 E11.48362
G1 X108.729 Y102.214 E11.86588
G1 X108.729 Y101.323 E11.89582
G1 X116.771 Y109.366 E12.27808
G1 X116.771 Y108.475 E12.30801
G1 X108.729 Y100.432 E12.69027
G1 X108.729 Y99.542 F7200.000
G1 X116.771 Y107.585 E13.07253 F1800.000
G1 X116.771 Y106.694 E13.10247
G1 X109.287 Y99.209 E13.45820
G1 X109.906 Y98.937 E13.48092
G1 X116.771 Y105.803 E13.80723
G1 X116.771 Y104.912 E13.83716
G1 X110.525 Y98.666 E14.13404
G1 X111.014 Y98.264 E14.15531
G1 X116.771 Y104.021 E14.42893
G1 X116.771 Y103.131 E14.45887
G1 X111.478 Y97.837 E14.71044
G1 X111.942 Y97.410 E14.73163
G1 X116.771 Y102.240 E14.96116
G1 X116.771 Y101.349 E14.99110
G1 X112.368 Y96.946 E15.20036
G1 X112.681 Y96.368 E15.22245
G1 X116.771 Y100.458 E15.41685
G1 X116.771 Y99.568 E15.44678
G1 X112.994 Y95.790 E15.62631
G1 X113.307 Y95.212 E15.64840
G1 X116.771 Y98.677 E15.81306
G1 X116.771 Y97.786 E15.84300
G1 X113.471 Y94.485 E15.99988
G1 X113.598 Y93.722 E16.02589
G1 X116.771 Y96.895 E16.17672
G1 X116.771 Y96.004 E16.20666
G1 X113.725 Y92.958 E16.35144
G1 X113.583 Y91.926 E16.38647
G1 X116.771 Y95.114 E16.53800
G1 X116.771 Y94.223 E16.56793
G1 X113.405 Y90.856 E16.72794
G1 X112.534 Y89.095 F7200.000
G1 X116.771 Y93.332 E16.92932 F1800.000
G1 X110.760 Y87.321 F7200.000
G1 X106.668 Y83.229 E17.12382 F1800.000
G1 X107.559 Y83.229 E17.15376
G1 X116.771 Y92.441 E17.59163
G1 X116.771 Y91.551 E17.62156
G1 X108.449 Y83.229 E18.01709
G1 X109.340 Y83.229 E18.04703
G1 X116.771 Y90.660 E18.40022
G1 X116.771 Y89.769 E18.43016
G1 X110.231 Y83.229 E18.74102
G1 X111.122 Y83.229 E18.77095
G1 X116.771 Y88.878 E19.03947
G1 X116.771 Y87.988 E19.06941
G1 X112.012 Y83.229 E19.29560
G1 X112.903 Y83.229 E19.32553
G1 X116.771 Y87.097 E19.50938
G1 X116.771 Y86.206 E19.53932
G1 X113.794 Y83.229 E19.68083
G1 X114.685 Y83.229 E19.71076
G1 X116.771 Y85.315 E19.80994
G1 X116.771 Y84.424 E19.83987
G1 X115.576 Y83.229 E19.89671
G1 X116.466 Y83.229 E19.92665
G1 X116.771 Y83.534 E19.94115
G1 X109.173 Y86.625 F7200.000
G1 X105.777 Y83.229 E20.10257 F1800.000
G1 X104.886 Y83.229 E20.13251
G1 X108.065 Y86.407 E20.28359
G1 X107.094 Y86.327 E20.31634
G1 X103.996 Y83.229 E20.46359
G1 X103.105 Y83.229 E20.49353
G1 X106.241 Y86.365 E20.64260
G1 X105.530 Y86.545 E20.66724
G1 X102.214 Y83.229 E20.82486
G1 X101.323 Y83.229 E20.85480
G1 X104.820 Y86.725 E21.02097
G1 X104.172 Y86.969 E21.04421
G1 X100.432 Y83.229 E21.22197
G1 X99.542 Y83.229 E21.25191
G1 X103.634 Y87.321 E21.44639
G1 X103.095 Y87.673 E21.46802
G1 X98.651 Y83.229 E21.67924
G1 X97.760 Y83.229 E21.70917
G1 X102.556 Y88.025 E21.93712
G1 X102.145 Y88.504 E21.95835
G1 X96.869 Y83.229 E22.20907
G1 X95.979 Y83.229 E22.23900
G1 X101.755 Y89.005 E22.51353
G1 X101.365 Y89.506 E22.53486
G1 X95.088 Y83.229 E22.83320
G1 X94.197 Y83.229 E22.86313
G1 X101.022 Y90.053 E23.18751
G1 X100.794 Y90.717 E23.21107
G1 X93.306 Y83.229 E23.56696
G1 X92.415 Y83.229 E23.59690
G1 X100.458 Y91.271 E23.97916
G1 X99.568 Y91.271 E24.00909
G1 X91.525 Y83.229 E24.39135
G1 X90.634 Y83.229 E24.42129
G1 X98.677 Y91.271 E24.80355
G1 X97.786 Y91.271 E24.83348
G1 X89.743 Y83.229 E25.21574
G1 X88.852 Y83.229 E25.24568
G1 X96.895 Y91.271 E25.62794
G1 X96.004 Y91.271 E25.65788
G1 X87.962 Y83.229 E26.04014
G1 X87.071 Y83.229 E26.07007
G1 X95.114 Y91.271 E26.45233
G1 X94.223 Y91.271 E26.48227
G1 X86.180 Y83.229 E26.86453
G1 X85.289 Y83.229 E26.89447
G1 X93.332 Y91.271 E27.27672
G1 X92.441 Y91.271 E27.30666
G1 X84.399 Y83.229 E27.68892
G1 X83.508 Y83.229 E27.71886
G1 X91.551 Y91.271 E28.10112
G1 X90.660 Y91.271 E28.13105
G1 X83.229 Y83.840 E28.48425
G1 X83.229 Y84.731 E28.51418
G1 X89.769 Y91.271 E28.82504
G1 X88.878 Y91.271 E28.85497
G1 X83.229 Y85.622 E29.12349
G1 X83.229 Y86.512 E29.15343
G1 X87.988 Y91.271 E29.37961
G1 X87.097 Y91.271 E29.40955
G1 X83.229 Y87.403 E29.59340
G1 X83.229 Y88.294 E29.62333
G1 X86.206 Y91.271 E29.76484
G1 X85.315 Y91.271 E29.79478
G1 X83.229 Y89.185 E29.89395
G1 X83.229 Y90.076 E29.92389
G1 X84.424 Y91.271 E29.98073
G1 X83.534 Y91.271 E30.01066
G1 X83.229 Y90.966 E30.02516
G1 Z0.350 F7200.000
G1 X82.079 Y91.142 F7200.000
G1 X80.896 Y93.503 E30.11319 F1800.000
G1 E28.41319 F2400.00000
G92 E0
G1 X82.878 Y92.337 F7200.000
G1 E1.70000 F2400.00000
G1 X80.896 Y96.292 E1.84748 F1800.000
G1 X81.883 Y97.113 E1.89027
G1 X84.276 Y92.337 E2.06836
G1 X84.410 Y94.858 E2.15253
G1 X83.281 Y97.113 E2.23660
G1 X81.720 Y97.437 F7200.000
G1 X80.896 Y99.081 E2.29790 F1800.000
G1 X80.896 Y101.870 E2.39090
G1 X83.118 Y97.437 E2.55622
G1 X84.410 Y97.648 E2.59988
G1 X80.896 Y104.659 E2.86139
G1 X81.064 Y107.113 E2.94338
G1 X84.410 Y100.437 E3.19235
G1 X84.410 Y103.226 E3.28534
G1 X82.462 Y107.113 E3.43029
G1 X84.410 Y106.015 E3.50484
G1 X83.860 Y107.113 E3.54576
G1 X82.300 Y107.437 F7200.000
G1 X80.896 Y110.238 E3.65021 F1800.000
G1 X80.896 Y113.027 E3.74320
G1 X83.698 Y107.437 E3.95167
G1 X84.410 Y108.804 E4.00308
G1 X80.896 Y115.816 E4.26458
G1 X81.644 Y117.113 E4.31449
G1 X84.410 Y111.594 E4.52031
G1 X84.410 Y114.383 E4.61331
G1 X83.042 Y117.113 E4.71511
G1 X84.440 Y117.113 E4.76172
G1 X85.245 Y115.506 E4.82164
G1 X86.643 Y115.506 E4.86825
G1 X85.838 Y117.113 E4.92817
G1 X85.763 Y117.262 F7200.000
G1 X84.798 Y119.188 E4.99997 F1800.000
G1 X83.400 Y119.188 E5.04658
G1 X84.365 Y117.262 E5.11838
G1 X82.967 Y117.262 E5.16499
G1 X82.002 Y119.188 E5.23679
G1 X80.896 Y118.606 E5.27846
G1 X81.569 Y117.262 E5.32856
G1 E3.62856 F2400.00000
G92 E0
G1 X88.041 Y115.506 F7200.000
G1 E1.70000 F2400.00000
G1 X86.196 Y119.188 E1.83730 F1800.000
G1 X87.594 Y119.188 E1.88391
G1 X89.439 Y115.506 E2.02122
G1 X90.837 Y115.506 E2.06783
G1 X88.992 Y119.188 E2.20513
G1 X90.390 Y119.188 E2.25174
G1 X92.235 Y115.506 E2.38905
G1 X93.633 Y115.506 E2.43566
G1 X91.788 Y119.188 E2.57296
G1 X93.186 Y119.188 E2.61957
G1 X95.031 Y115.506 E2.75687
G1 X96.429 Y115.506 E2.80349
G1 X94.584 Y119.188 E2.94079
G1 X95.982 Y119.188 E2.98740
G1 X97.827 Y115.506 E3.12470
G1 X99.225 Y115.506 E3.17131
G1 X97.380 Y119.188 E3.30862
G1 X98.778 Y119.188 E3.35523
G1 X100.623 Y115.506 E3.49253
G1 X102.021 Y115.506 E3.53914
G1 X100.176 Y119.188 E3.67645
G1 X101.574 Y119.188 E3.72306
G1 X103.419 Y115.506 E3.86036
G1 X104.817 Y115.506 E3.90697
G1 X102.972 Y119.188 E4.04427
G1 X104.370 Y119.188 E4.09088
G1 X106.215 Y115.506 E4.22819
G1 X107.579 Y115.574 E4.27372
G1 X105.768 Y119.188 E4.40850
G1 X107.166 Y119.188 E4.45511
G1 X107.842 Y117.837 E4.50547
G1 X108.904 Y118.509 E4.54734
G1 X108.564 Y119.188 E4.57267
G1 E2.87267 F2400.00000
G92 E0
G1 X106.509 Y100.972 F7200.000
G1 E1.70000 F2400.00000
G1 X107.579 Y98.838 E1.77959 F1800.000
G1 X107.733 Y98.532 F7200.000
G1 X108.433 Y97.134 E1.83172 F1800.000
G1 X106.975 Y97.255 E1.88051
G1 X105.233 Y100.730 E2.01014
G1 X103.992 Y100.416 E2.05281
G1 X105.573 Y97.262 E2.17043
G1 X104.175 Y97.262 E2.21704
G1 X102.904 Y99.798 E2.31158
G1 X101.851 Y99.110 E2.35353
G1 X102.777 Y97.262 E2.42241
G1 X101.379 Y97.262 E2.46903
G1 X100.952 Y98.114 E2.50079
G1 E0.80079 F2400.00000
G92 E0
G1 X104.250 Y97.113 F7200.000
G1 E1.70000 F2400.00000
G1 X104.582 Y96.451 E1.72467 F1800.000
G1 X103.632 Y95.557 E1.76816
G1 X102.852 Y97.113 E1.82616
G1 X101.454 Y97.113 E1.87277
G1 X102.908 Y94.213 E1.98093
G1 X102.686 Y91.866 E2.05952
G1 X100.102 Y97.022 E2.25180
G1 X99.503 Y95.426 E2.30860
G1 X101.052 Y92.337 E2.42381
G1 X99.654 Y92.337 E2.47042
G1 X99.171 Y93.299 E2.50629
G1 Z0.550 F7200.000
G1 E0.80629 F2400.00000
G92 E0
G1 X117.325 Y117.325 F7200.000
G1 E1.70000 F2400.00000
G1 X108.175 Y117.325 E1.78567 F2400.000
G1 X108.175 Y99.017 E1.95708
G1 X108.516 Y98.988 E1.96029
G1 X110.379 Y98.172 E1.97933
G1 X111.875 Y96.794 E1.99837
G1 X112.843 Y95.006 E2.01741
G1 X113.177 Y93.000 E2.03645
G1 X112.886 Y91.256 E2.05300
G1 X112.843 Y90.994 E2.05548
G1 X111.875 Y89.206 E2.07452
G1 X110.379 Y87.828 E2.09356
G1 X108.516 Y87.012 E2.11260
G1 X106.490 Y86.844 E2.13164
G1 X104.519 Y87.343 E2.15068
G1 X102.816 Y88.455 E2.16972
G1 X101.567 Y90.060 E2.18876
G1 X100.961 Y91.825 E2.20623
G1 X82.675 Y91.825 E2.37744
G1 X82.675 Y82.675 E2.46310
G1 X117.325 Y82.675 E2.78752
G1 X117.325 Y117.273 E3.11144
G1 X116.831 Y117.075 F7200.000
G1 X117.075 Y116.831 E3.11654 F1200.000
G1 X117.075 Y116.146 E3.12665
G1 X116.146 Y117.075 E3.14606
G1 X115.461 Y117.075 E3.15617
G1 X117.075 Y115.461 E3.18988
G1 X117.075 Y114.776 E3.19999
G1 X114.776 Y117.075 E3.24801
G1 X114.091 Y117.075 E3.25812
G1 X117.075 Y114.091 E3.32044
G1 X117.075 Y113.406 E3.33056
G1 X113.406 Y117.075 E3.40718
G1 X112.721 Y117.075 E3.41729
G1 X117.075 Y112.721 E3.50822
G1 X117.075 Y112.036 E3.51834
G1 X112.036 Y117.075 E3.62357
G1 X111.351 Y117.075 E3.63369
G1 X117.075 Y111.351 E3.75323
G1 X117.075 Y110.666 E3.76334
G1 X110.666 Y117.075 E3.89719
G1 X109.981 Y117.075 E3.90730
G1 X117.075 Y109.981 E4.05545
G1 X117.075 Y109.296 E4.06557
G1 X109.296 Y117.075 E4.22802
G1 X108.611 Y117.075 E4.23814
G1 X117.075 Y108.611 E4.41490
G1 X117.075 Y107.926 E4.42501
G1 X108.425 Y116.577 E4.60567
G1 X108.425 Y115.892 E4.61578
G1 X117.075 Y107.241 E4.79643
G1 X117.075 Y106.556 E4.80655
G1 X108.425 Y115.207 E4.98720
G1 X108.425 Y114.522 E4.99732
G1 X117.075 Y105.871 E5.17797
G1 X117.075 Y105.186 E5.18809
G1 X108.425 Y113.837 E5.36874
G1 X108.425 Y113.152 E5.37886
G1 X117.075 Y104.502 E5.55951
G1 X117.075 Y103.817 E5.56963
G1 X108.425 Y112.467 E5.75028
G1 X108.425 Y111.782 E5.76040
G1 X117.075 Y103.132 E5.94105
G1 X117.075 Y102.447 E5.95117
G1 X108.425 Y111.097 E6.13182
G1 X108.425 Y110.412 E6.14194
G1 X117.075 Y101.762 E6.32259
G1 X117.075 Y101.077 E6.33271
G1 X108.425 Y109.727 E6.51336
G1 X108.425 Y109.042 E6.52348
G1 X117.075 Y100.392 E6.70413
G1 X117.075 Y99.707 E6.71425
G1 X108.425 Y108.357 E6.89490
G1 X108.425 Y107.672 E6.90502
G1 X117.075 Y99.022 E7.08567
G1 X117.075 Y98.337 E7.09579
G1 X108.425 Y106.987 E7.27644
G1 X108.425 Y106.302 E7.28656
G1 X117.075 Y97.652 E7.46721
G1 X117.075 Y96.967 E7.47733
G1 X108.425 Y105.617 E7.65798
G1 X108.425 Y104.932 E7.66810
G1 X117.075 Y96.282 E7.84875
G1 X117.075 Y95.597 E7.85887
G1 X108.425 Y104.247 E8.03952
G1 X108.425 Y103.562 E8.04963
G1 X117.075 Y94.912 E8.23029
G1 X117.075 Y94.227 E8.24040
G1 X108.425 Y102.877 E8.42106
G1 X108.425 Y102.192 E8.43117
G1 X117.075 Y93.542 E8.61183
G1 X117.075 Y92.857 E8.62194
G1 X108.425 Y101.507 E8.80260
G1 X108.425 Y100.822 E8.81271
G1 X117.075 Y92.172 E8.99337
G1 X117.075 Y91.487 E9.00348
G1 X112.771 Y95.791 E9.09337
G1 X113.163 Y94.714 F7200.000
G1 X117.075 Y90.802 E9.17507 F1200.000
G1 X117.075 Y90.117 E9.18519
G1 X113.300 Y93.892 E9.26402
G1 X113.428 Y93.079 E9.27617
G1 X117.075 Y89.432 E9.35233
G1 X117.075 Y88.747 E9.36245
G1 X113.330 Y92.492 E9.44066
G1 X113.232 Y91.905 E9.44945
G1 X117.075 Y88.062 E9.52970
G1 X117.075 Y87.377 E9.53981
G1 X113.134 Y91.318 E9.62211
G1 X112.976 Y90.791 E9.63023
G1 X117.075 Y86.692 E9.71584
G1 X117.075 Y86.007 E9.72596
G1 X112.735 Y90.347 E9.81659
G1 X112.495 Y89.903 E9.82405
G1 X117.075 Y85.322 E9.91971
G1 X117.075 Y84.637 E9.92983
G1 X112.254 Y89.458 E10.03051
G1 X111.994 Y89.033 E10.03786
G1 X117.075 Y83.952 E10.14397
G1 X117.075 Y83.267 E10.15409
G1 X111.638 Y88.705 E10.26765
G1 X111.281 Y88.377 E10.27481
G1 X116.733 Y82.925 E10.38866
G1 X116.048 Y82.925 E10.39878
G1 X110.924 Y88.048 E10.50578
G1 X110.568 Y87.720 E10.51294
G1 X115.363 Y82.925 E10.61308
G1 X114.678 Y82.925 E10.62320
G1 X110.124 Y87.479 E10.71831
G1 X109.647 Y87.270 E10.72598
G1 X113.993 Y82.925 E10.81673
G1 X113.308 Y82.925 E10.82685
G1 X109.171 Y87.061 E10.91324
G1 X108.695 Y86.853 E10.92091
G1 X112.623 Y82.925 E11.00294
G1 X111.938 Y82.925 E11.01306
G1 X108.126 Y86.737 E11.09266
G1 X107.493 Y86.684 E11.10203
G1 X111.253 Y82.925 E11.18055
G1 X110.568 Y82.925 E11.19066
G1 X106.861 Y86.632 E11.26808
G1 X106.170 Y86.638 E11.27828
G1 X109.883 Y82.925 E11.35583
G1 X109.198 Y82.925 E11.36594
G1 X105.253 Y86.870 E11.44834
G1 X104.335 Y87.103 E11.46231
G1 X108.513 Y82.925 E11.54956
G1 X107.828 Y82.925 E11.55968
G1 X99.178 Y91.575 E11.74033
G1 X99.863 Y91.575 E11.75045
G1 X101.202 Y90.236 E11.77841
G1 X100.843 Y91.279 F7200.000
G1 X100.548 Y91.575 E11.78458 F1200.000
G1 X98.493 Y91.575 F7200.000
G1 X107.143 Y82.925 E11.96524 F1200.000
G1 X106.458 Y82.925 E11.97535
G1 X97.808 Y91.575 E12.15601
G1 X97.123 Y91.575 E12.16612
G1 X105.773 Y82.925 E12.34678
G1 X105.088 Y82.925 E12.35689
G1 X96.438 Y91.575 E12.53755
G1 X95.753 Y91.575 E12.54766
G1 X104.403 Y82.925 E12.72832
G1 X103.718 Y82.925 E12.73843
G1 X95.068 Y91.575 E12.91909
G1 X94.383 Y91.575 E12.92920
G1 X103.033 Y82.925 E13.10986
G1 X102.348 Y82.925 E13.11997
G1 X93.698 Y91.575 E13.30063
G1 X93.013 Y91.575 E13.31074
G1 X101.663 Y82.925 E13.49140
G1 X100.978 Y82.925 E13.50151
G1 X92.328 Y91.575 E13.68217
G1 X91.643 Y91.575 E13.69228
G1 X100.293 Y82.925 E13.87294
G1 X99.608 Y82.925 E13.88305
G1 X90.958 Y91.575 E14.06370
G1 X90.273 Y91.575 E14.07382
G1 X98.923 Y82.925 E14.25447
G1 X98.238 Y82.925 E14.26459
G1 X89.588 Y91.575 E14.44524
G1 X88.903 Y91.575 E14.45536
G1 X97.553 Y82.925 E14.63601
